assets/img/facebook.svg

<svg width="9" height="18" viewBox="0 0 9 18" fill="none" xmlns="http://www.w3.org/2000/svg">
<path d="M2.5058 10.0754C2.44316 10.0754 1.06497 10.0754 0.438515 10.0754C0.104408 10.0754 0 9.95012 0 9.6369C0 8.80163 0 7.94548 0 7.11021C0 6.77611 0.12529 6.6717 0.438515 6.6717H2.5058C2.5058 6.60905 2.5058 5.39792 2.5058 4.83411C2.5058 3.99884 2.65197 3.20534 3.06961 2.47448C3.50812 1.72274 4.13457 1.22158 4.92807 0.929237C5.45012 0.741302 5.97216 0.657776 6.53596 0.657776H8.58237C8.87471 0.657776 9 0.783066 9 1.07541V3.45592C9 3.74826 8.87471 3.87355 8.58237 3.87355C8.01856 3.87355 7.45476 3.87355 6.89095 3.89444C6.32715 3.89444 6.0348 4.1659 6.0348 4.75058C6.01392 5.37703 6.0348 5.9826 6.0348 6.62993H8.45708C8.79118 6.62993 8.91647 6.75522 8.91647 7.08933V9.61601C8.91647 9.95012 8.81207 10.0545 8.45708 10.0545C7.70534 10.0545 6.09745 10.0545 6.0348 10.0545V16.862C6.0348 17.2169 5.93039 17.3422 5.55452 17.3422C4.67749 17.3422 3.82135 17.3422 2.94432 17.3422C2.63109 17.3422 2.5058 17.2169 2.5058 16.9037C2.5058 14.7111 2.5058 10.1381 2.5058 10.0754Z" fill="#F7F7EE"/>
</svg>

<svg xmlns="http://www.w3.org/2000/svg" width="9" height="18" fill="none"><path fill="#F7F7EE" d="M2.506 10.075H.439C.104 10.075 0 9.95 0 9.637V7.11c0-.334.125-.438.439-.438h2.067V4.834c0-.835.146-1.629.564-2.36A3.465 3.465 0 0 1 4.928.93 4.646 4.646 0 0 1 6.536.658h2.046c.293 0 .418.125.418.417v2.38c0 .293-.125.419-.418.419-.563 0-1.127 0-1.691.02-.564 0-.856.272-.856.857-.021.626 0 1.232 0 1.879h2.422c.334 0 .46.125.46.46v2.526c0 .334-.105.439-.46.439H6.035v6.807c0 .355-.105.48-.48.48h-2.61c-.314 0-.44-.125-.44-.438v-6.829Z"/></svg>
